X: 1
T: Kiss Me Kate
M: 4/4
L: 1/8
R: reel
K: Gmaj
G2Bd gdBG|DEGB AE~E2|GABd gdBd|ecBc AGED|
G2(3Bcd gdBG|DEGB AE~E2|GABd gdBd|ecAc BGG2|
fgag fddf|~g3a bgeg|fgag fddg|fdef g2d2|
(3gab af g2bg|faag fddg|fded fd(3ddd|fdef gedB|
